!!!COM: Fe/licien David
!!!CNT: Francais
!!!TXO: Francais
!!!OTL: Le Tchibouk
!!!LYR: Louis Jourdan
!!!ENC: Jacob Pegg
!!!YOR: Romantic French Song 1830-1870, David Tunley, ed., New York: Garland Publishing, Inc., 1995
!!!ODT: 1845/
!!NB: Vocal melody and text only encoded.
!!NB: First strophe encoded; subsequent strophes show minimal melodic variation. 
**kern	**silbe
*clef G2	*
*k[]	*
*M4/4	*
=10	=10
4r	.
{8a	{Ap-
8b	-por-
4cc	-tez
8.cc	mon
16dd	tchi-
=11	=11
2ee	-bouck,
4r	.
8r	.
8a	Jou-
=12	=12
4.ff	-ez,
8ee	jou-
8dd	ez-
8cc	du
8.b	ta-
16a	-ta-
=13	=13
2a}	-bouk!}
2r	.
=14	=14
1r	.
=15	=15
4r	.
{8.cc	{Que
16cc	Fat-
4cc	-ma
8dd	la
8dd	dan-
=16	=16
4ee	-seu-
8.cc	-se
16cc	Pe/-
[2ff	-ri
=17	=17
8ff]	|
8ee	vo-
8dd	-lup-
8cc	-tu-
(12dd	-eu-
12cc	|
12b	|
12cc	|
12b	|
12a)	|
=18	=18
2g}	-se}
2r	.
=19	=19
1r	.
=20	=20
4r	.
8r	.
{8c	Ou-
8c	-vre
8dd	le
(ddq	pa-
8.ee)	|
16ee	-ra-
=21	=21
4ee	-dis,
8r	.
8d	le
8.ff#	pa-
16b	-ra-
8b	-dis,
8b	le
=22	=22
8.gg#;	pa-
(16eeq	|
16ff#q	|
16gg#q	|
16ff#q	|
16ee)	-ra-
4ee;}	-dis,}
2r	.
=23	=23
4r	.
{8.a	{A
16a	mes
4ff	yeux
8.ee	e/-
16cc	blou-
=24	=24
2a}	-is!}
2r	.
*-	*-
